Simply-Blue-Circles/scalable/apps/bluegriffon.svg

<svg xmlns="http://www.w3.org/2000/svg" width="48" height="48" viewBox="0 0 12.7 12.7"><path fill="#2c89a0" d="M6.35.061a6.29 6.29 0 0 0-6.289 6.29 6.29 6.29 0 0 0 6.29 6.288 6.29 6.29 0 0 0 6.288-6.288 6.29 6.29 0 0 0-1.256-3.76l-.64.697a5.407 5.407 0 0 1 .996 3.116 5.407 5.407 0 0 1-5.407 5.407A5.407 5.407 0 0 1 .925 6.404 5.407 5.407 0 0 1 6.332.997a5.407 5.407 0 0 1 2.538.636l.924-.543A6.29 6.29 0 0 0 6.35.061zm4.855.786c0-.013-.152.09-.338.231C9.114 2.4 6.922 3.557 5.695 3.807l-.23.047-.089.23c-.305.804-1.174 1.373-2.535 1.663a3.125 3.125 0 0 0-.513.146 1.457 1.457 0 0 0-.555.556c-.088.17-.102.243-.088.474.01.194.037.297.092.356.074.08.258.123.212.049-.037-.058.136-.244.307-.33.277-.139.707-.204 1.158-.198.08 0 .177.005.243.01.338.024.673.087.951.191.15.056.276.123.38.199.383.196.706.452.977.747l.002-.029c.002-.194.008-.353.014-.353.007 0 .031.05.055.111.057.148.087.303.093.46.515.64.819 1.427.997 2.188.239-.406.465-.943.466-1.162.001-.325.23.312.302.842l.05.367.09-.222c.152-.372.223-.76.223-1.217a3.25 3.25 0 0 0-.027-.515c-.015-.047-.01-.085.01-.085.05 0 .443.394.544.545.095.142.102.08.024-.208-.207-.763-.8-1.483-1.645-1.996l-.327-.198.162-.005a1.91 1.91 0 0 0 .286-.033l.124-.027-.165-.055L7.12 6.3l.263-.053a3 3 0 0 0 .554-.188l.292-.136-.37.015-.37.014.288-.096c.4-.132 1.168-.528 1.119-.577a1.825 1.825 0 0 0-.32.066c-.495.126-.548.099-.16-.085.376-.179.907-.516 1.168-.742l.164-.142-.308.136c-.261.116-.858.307-.96.307-.017 0 .088-.06.234-.136.417-.213.794-.496 1.26-.946l.432-.416-.35.182c-.33.171-1.027.479-1.027.453 0-.006.088-.073.196-.147.416-.29 1.153-1.054 1.59-1.649l.158-.216-.389.299c-.414.318-1.262.858-1.295.826-.011-.011.03-.052.092-.092.181-.117.98-1.004 1.418-1.576.224-.291.407-.54.407-.554z"/></svg>

<?xml version="1.0" encoding="UTF-8" standalone="no"?>
<svg
   xmlns:dc="http://purl.org/dc/elements/1.1/"
   xmlns:cc="http://creativecommons.org/ns#"
   xmlns:rdf="http://www.w3.org/1999/02/22-rdf-syntax-ns#"
   xmlns:svg="http://www.w3.org/2000/svg"
   xmlns="http://www.w3.org/2000/svg"
   xmlns:sodipodi="http://sodipodi.sourceforge.net/DTD/sodipodi-0.dtd"
   xmlns:inkscape="http://www.inkscape.org/namespaces/inkscape"
   width="48"
   height="48"
   viewBox="0 0 12.7 12.7"
   version="1.1"
   id="svg4"
   sodipodi:docname="bluegriffon.svg"
   inkscape:version="0.92.4 (5da689c313, 2019-01-14)">
  <metadata
     id="metadata10">
    <rdf:RDF>
      <cc:Work
         rdf:about="">
        <dc:format>image/svg+xml</dc:format>
        <dc:type
           rdf:resource="http://purl.org/dc/dcmitype/StillImage" />
        <dc:title></dc:title>
      </cc:Work>
    </rdf:RDF>
  </metadata>
  <defs
     id="defs8" />
  <sodipodi:namedview
     pagecolor="#ffffff"
     bordercolor="#666666"
     borderopacity="1"
     objecttolerance="10"
     gridtolerance="10"
     guidetolerance="10"
     inkscape:pageopacity="0"
     inkscape:pageshadow="2"
     inkscape:window-width="1087"
     inkscape:window-height="480"
     id="namedview6"
     showgrid="false"
     inkscape:zoom="4.9166667"
     inkscape:cx="2.1355932"
     inkscape:cy="24"
     inkscape:window-x="0"
     inkscape:window-y="25"
     inkscape:window-maximized="0"
     inkscape:current-layer="svg4" />
  <path
     d="m 6.35,0.061 a 6.29,6.29 0 0 0 -6.289,6.29 6.29,6.29 0 0 0 6.29,6.288 6.29,6.29 0 0 0 6.288,-6.288 6.29,6.29 0 0 0 -1.256,-3.76 l -0.64,0.697 A 5.407,5.407 0 0 1 11.739,6.404 5.407,5.407 0 0 1 6.332,11.811 5.407,5.407 0 0 1 0.925,6.404 5.407,5.407 0 0 1 6.332,0.997 5.407,5.407 0 0 1 8.87,1.633 L 9.794,1.09 A 6.29,6.29 0 0 0 6.35,0.061 Z m 4.855,0.786 c 0,-0.013 -0.152,0.09 -0.338,0.231 C 9.114,2.4 6.922,3.557 5.695,3.807 L 5.465,3.854 5.376,4.084 C 5.071,4.888 4.202,5.457 2.841,5.747 A 3.125,3.125 0 0 0 2.328,5.893 1.457,1.457 0 0 0 1.773,6.449 C 1.685,6.619 1.671,6.692 1.685,6.923 1.695,7.117 1.722,7.22 1.777,7.279 1.851,7.359 2.035,7.402 1.989,7.328 1.952,7.27 2.125,7.084 2.296,6.998 2.573,6.859 3.003,6.794 3.454,6.8 3.534,6.8 3.631,6.805 3.697,6.81 4.035,6.834 4.37,6.897 4.648,7.001 4.798,7.057 4.924,7.124 5.028,7.2 5.411,7.396 5.734,7.652 6.005,7.947 L 6.007,7.918 C 6.009,7.724 6.015,7.565 6.021,7.565 c 0.007,0 0.031,0.05 0.055,0.111 0.057,0.148 0.087,0.303 0.093,0.46 0.515,0.64 0.819,1.427 0.997,2.188 0.239,-0.406 0.465,-0.943 0.466,-1.162 0.001,-0.325 0.23,0.312 0.302,0.842 l 0.05,0.367 0.09,-0.222 C 8.226,9.777 8.297,9.389 8.297,8.932 A 3.25,3.25 0 0 0 8.27,8.417 C 8.255,8.37 8.26,8.332 8.28,8.332 8.33,8.332 8.723,8.726 8.824,8.877 8.919,9.019 8.926,8.957 8.848,8.669 8.641,7.906 8.048,7.186 7.203,6.673 L 6.876,6.475 7.038,6.47 C 7.128,6.467 7.256,6.452 7.324,6.437 L 7.448,6.41 7.283,6.355 7.12,6.3 7.383,6.247 A 3,3 0 0 0 7.937,6.059 L 8.229,5.923 7.859,5.938 7.489,5.952 7.777,5.856 C 8.177,5.724 8.945,5.328 8.896,5.279 A 1.825,1.825 0 0 0 8.576,5.345 C 8.081,5.471 8.028,5.444 8.416,5.26 8.792,5.081 9.323,4.744 9.584,4.518 L 9.748,4.376 9.44,4.512 C 9.179,4.628 8.582,4.819 8.48,4.819 8.463,4.819 8.568,4.759 8.714,4.683 9.131,4.47 9.508,4.187 9.974,3.737 l 0.432,-0.416 -0.35,0.182 C 9.726,3.674 9.029,3.982 9.029,3.956 9.029,3.95 9.117,3.883 9.225,3.809 9.641,3.519 10.378,2.755 10.815,2.16 L 10.973,1.944 10.584,2.243 C 10.17,2.561 9.322,3.101 9.289,3.069 9.278,3.058 9.319,3.017 9.381,2.977 9.562,2.86 10.361,1.973 10.799,1.401 11.023,1.11 11.206,0.861 11.206,0.847 Z"
     id="path2"
     inkscape:connector-curvature="0"
     style="fill:#2c89a0" />
</svg>
